svg/editor/paint_line.svg

<?xml version="1.0" encoding="UTF-8"?>
<svg width="24px" height="24px" viewBox="0 0 24 24" version="1.1" xmlns="http://www.w3.org/2000/svg" xmlns:xlink="http://www.w3.org/1999/xlink">
    <title>paint_line</title>
    <g id="页面-1" stroke="none" stroke-width="1" fill="none" fill-rule="evenodd">
        <g id="Editor" transform="translate(-912.000000, 0.000000)" fill-rule="nonzero">
            <g id="paint_line" transform="translate(912.000000, 0.000000)">
                 <path d="M24,0 L24,24 L0,24 L0,0 L24,0 Z M12.5934901,23.257841 L12.5819402,23.2595131 L12.5108777,23.2950439 L12.4918791,23.2987469 L12.4918791,23.2987469 L12.4767152,23.2950439 L12.4056548,23.2595131 C12.3958229,23.2563662 12.3870493,23.2590235 12.3821421,23.2649074 L12.3780323,23.275831 L12.360941,23.7031097 L12.3658947,23.7234994 L12.3769048,23.7357139 L12.4804777,23.8096931 L12.4953491,23.8136134 L12.4953491,23.8136134 L12.5071152,23.8096931 L12.6106902,23.7357139 L12.6232938,23.7196733 L12.6232938,23.7196733 L12.6266527,23.7031097 L12.609561,23.275831 C12.6075724,23.2657013 12.6010112,23.2592993 12.5934901,23.257841 L12.5934901,23.257841 Z M12.8583906,23.1452862 L12.8445485,23.1473072 L12.6598443,23.2396597 L12.6498822,23.2499052 L12.6498822,23.2499052 L12.6471943,23.2611114 L12.6650943,23.6906389 L12.6699349,23.7034178 L12.6699349,23.7034178 L12.678386,23.7104931 L12.8793402,23.8032389 C12.8914285,23.8068999 12.9022333,23.8029875 12.9078286,23.7952264 L12.9118235,23.7811639 L12.8776777,23.1665331 C12.8752882,23.1545897 12.8674102,23.1470016 12.8583906,23.1452862 L12.8583906,23.1452862 Z M12.1430473,23.1473072 C12.1332178,23.1423925 12.1221763,23.1452606 12.1156365,23.1525954 L12.1099173,23.1665331 L12.0757714,23.7811639 C12.0751323,23.7926639 12.0828099,23.8018602 12.0926481,23.8045676 L12.108256,23.8032389 L12.3092106,23.7104931 L12.3186497,23.7024347 L12.3186497,23.7024347 L12.3225043,23.6906389 L12.340401,23.2611114 L12.337245,23.2485176 L12.337245,23.2485176 L12.3277531,23.2396597 L12.1430473,23.1473072 Z" id="MingCute" fill-rule="nonzero"></path>
                <path d="M11.1967304,2.74881104 L11.3351,2.82175 L19.1293,7.32175 C20.0403476,7.84773095 20.3809644,8.98224705 19.9342407,9.91543327 L19.8613,10.0538 L13.8613,20.4461 C13.3353,21.3571476 12.2008646,21.6977644 11.2676689,21.2511271 L11.1293,21.1782 L3.33505,16.6782 C2.42402143,16.1522 2.0833602,15.0176739 2.53006233,14.0844695 L2.603,13.9461 L7.10295,6.15196 L5.37088,5.15195 C4.89259,4.8758 4.72871,4.26421 5.00486,3.78592 C5.26127571,3.34179357 5.80693148,3.16876556 6.26651981,3.36740637 L6.37088,3.41989 L8.10295,4.41991 L8.603,3.5538 C9.10129774,2.6907203 10.1457844,2.3395411 11.0478269,2.68478958 L11.1967304,2.74881104 Z M16.4283,12 L6.036,12 L4.33505,14.9461 L12.1293,19.4461 L16.4283,12 Z M20.3027799,11.229495 L20.5,11 L20.5,11 L20.5760706,11.0868688 L20.5760706,11.0868688 L20.7738542,11.3219715 L20.7738542,11.3219715 L20.9507889,11.5421668 L20.9507889,11.5421668 L21.148009,11.7999061 L21.148009,11.7999061 L21.351991,12.0838542 C21.6900826,12.5726446 22,13.1234091 22,13.5 C22,14.3284 21.3284,15 20.5,15 C19.6715,15 19,14.3284 19,13.5 C19,13.0480909 19.446281,12.3453719 19.851991,11.7999061 L20.0492111,11.5421668 L20.0492111,11.5421668 L20.3027799,11.229495 L20.3027799,11.229495 Z M10.3351,4.5538 L9.835,5.41991 L10.701,5.91989 C11.1793,6.19604 11.3432,6.80763 11.067,7.28592 C10.7909,7.76421 10.1793,7.92809 9.70101,7.65195 L8.835,7.15196 L7.1907,9.99997 L17.583,9.99997 L18.1293,9.0538 L10.3351,4.5538 Z" id="形状" fill="#09244B"></path>
            </g>
        </g>
    </g>
</svg>

<svg xmlns="http://www.w3.org/2000/svg" width="24" height="24"><g fill="none" fill-rule="nonzero"><path d="M24 0v24H0V0h24ZM12.593 23.258l-.011.002-.071.035-.02.004-.014-.004-.071-.035c-.01-.004-.019-.001-.024.005l-.004.01-.017.428.005.02.01.013.104.074.015.004.012-.004.104-.074.012-.016.004-.017-.017-.427c-.002-.01-.009-.017-.017-.018Zm.265-.113-.013.002-.185.093-.01.01-.003.011.018.43.005.012.008.007.201.093c.012.004.023 0 .029-.008l.004-.014-.034-.614c-.003-.012-.01-.02-.02-.022Zm-.715.002a.023.023 0 0 0-.027.006l-.006.014-.034.614c0 .012.007.02.017.024l.015-.002.201-.093.01-.008.004-.011.017-.43-.003-.012-.01-.01-.184-.092Z"/><path fill="#09244B" d="m11.197 2.749.138.073 7.794 4.5a2 2 0 0 1 .805 2.593l-.073.139-6 10.392a2 2 0 0 1-2.593.805l-.139-.073-7.794-4.5a2 2 0 0 1-.805-2.594l.073-.138 4.5-7.794-1.732-1a1 1 0 0 1 .896-1.785l.104.053 1.732 1 .5-.866a2 2 0 0 1 2.445-.87l.149.065ZM16.428 12H6.036l-1.7 2.946 7.793 4.5L16.43 12Zm3.875-.77L20.5 11l.076.087.198.235.177.22.197.258.204.284c.338.489.648 1.04.648 1.416a1.5 1.5 0 0 1-3 0c0-.452.446-1.155.852-1.7l.197-.258.254-.313Zm-9.968-6.676-.5.866.866.5a1 1 0 1 1-1 1.732l-.866-.5L7.191 10h10.392l.546-.946-7.794-4.5Z"/></g></svg>
